X: 6188
T: Carbray's Frolics
R: jig
M: 6/8
K: Gmajor
|:g|f2 d efg|dcB A2 ^G|ABA A2 G|ABA A2 g|
fed ee/f/g|dcB A3|B2 G cAF|GAG G2:|
|:c|B2 d dBG|B^AB dBG|ABA A2 ^G|AA/B/A AA/B/c|
B2 B dB/A/G|B^AB d3|B2 G cAF|GAG G2:|

